X:385
T:Westering Home
R:jig
S:version 1 from Marco Pollier and Kevin Ryan
D:Brian Rooney: The Godfather
Z:hn-jig-385
M:6/8
L:1/8
K:D
ABA AFG | Ade f2d | fge fed | fge edB |
ABA AFG | Ade f2g | afd efe |1 d3 dcB :|2 d3 def ||
|: ~g3 bag | ~f3 agf | ~e3 ede | fge edB |
ABA AFG | Ade f2g | afd efe |1 d3 def :|2 d3 dcB ||
